X:1
T:Hostis Herodes impie
T:Victoria Doxology & Amen by BMarble
T:Hostis Herodes impie
T:Copyright © 2015 by The Choral Public Domain Library. Edition may be freely distributed, duplicated, performed or recorded.
T:Copyright © 2015 by The Choral Public Domain Library. Edition may be freely distributed, duplicated, performed or recorded.
T:Copyright © 2015 by The Choral Public Domain Library. Edition may be freely distributed, duplicated, performed or recorded.
T:Copyright © 2015 by The Choral Public Domain Library. Edition may be freely distributed, duplicated, performed or recorded.
T:Copyright © 2015 by The Choral Public Domain Library. Edition may be freely distributed, duplicated, performed or recorded.
T:Copyright © 2015 by The Choral Public Domain Library. Edition may be freely distributed, duplicated, performed or recorded.
T:Copyright © 2015 by The Choral Public Domain Library. Edition may be freely distributed, duplicated, performed or recorded.
T:Copyright © 2015 by The Choral Public Domain Library. Edition may be freely distributed, duplicated, performed or recorded.
T:Copyright © 2015 by The Choral Public Domain Library. Edition may be freely distributed, duplicated, performed or recorded.
T:Copyright © 2015 by The Choral Public Domain Library. Edition may be freely distributed, duplicated, performed or recorded.
T:Copyright © 2015 by The Choral Public Domain Library. Edition may be freely distributed, duplicated, performed or recorded.
C:Victoria
C:Doxology & Amen
C:by BMarble
Z:Copyright © 2015 by The Choral Public Domain Library. Edition may be freely distributed, duplicated, performed or recorded.
%%score [ 1 2 3 4 ]
L:1/8
Q:1/2=56
M:4/4
K:C
V:1 treble nm="Soprano" snm="S."
V:2 treble nm="Alto" snm="A."
V:3 treble-8 transpose=-12 nm="Tenor" snm="T."
V:4 bass nm="Baritone" snm="Bar."
V:1
 z24 | z24 | z24 | z24 ||[M:4/2][Q:1/2=92] z16 | z16 | z16 | z16 | z16 | z16 | F16 | G16 | %12
w: ||||||||||2.~I-|bant|
 (A6 B2 c8) | c12 G4 | (A4 G8) ^F4 | G8 z8 | z16 | c16 | B8 A8 | c8 G8 | G8 A8 | G16- | G8 z8 | %23
w: Ma- * *|gi quam|vi- * de-|rant,||stel-|lam se-|quen- tes|pre- vi-|am:|_|
 c16 | c8 d8 | e8 c8 | (d8 c8 | B8) A8 | G16- | G8 z8 | z16 | z16 | G16- | G8 G8- | G4 F4 E8- | %35
w: Lu-|men re-|qui- runt|lu- *|* mi-|ne:|_|||De-|* um|_ fa- ten-|
 E4 F4 G4 A4- | A2 G2 G8 ^F4 | G16 ||[Q:1/2=56] F2 G2 (A2 c2) c2 G2 A2 F2 G8 | %39
w: * tur mu- *|* * * ne-|re.|3.~La- va- cra _ pu- ri gur- gi- tis|
 c2 B2 A2 c2 G2 A2 F2 G8 x2 | c2 c2 d2 e2 c2 d2 (c2 B2) (A4 G4) | G2 G2 F2 E2 F2 A2 F2 G8 x2 || %42
w: cae- le- stis A- gnus at- ti git;|pec- ca- ta, quae non de- tu- * lit, _|nos ab- lu- en- do sus- tu- lit.|
[M:4/2][Q:1/2=92] F16 | G16 | (A6 B2 c8) | c12 G4 | (A6 G2 F4 E4 | D4) D4 E4 G4- | G4 ^F4 (G4 A4) | %49
w: 4.~No-|vum|ge- * *|nus po-|ten- * * *|* ti- ae, no-|* vum ge- *|
 G4 E4 A2 G2 G4- | G4 ^F2 E2 F4 F4 | G8 z8 | G8 =F8- | F4 E4 G8 | D4 G8 ^F4 | G4 E4 D6 E2 | %56
w: nus po- ten- * *|* * * * ti-|ae:|a- quae|_ ru- be-|scunt hy- *||
 =F2 E2 F2 G2 A8- | A4 A4 G8- | G8 z4 G4 | G4 A4 B8 | G16 | c8 A8 | G8 z4 A4 | A4 B4 c4 A4 | %64
w: |* dri- ae,|_ vi-|num- que jus-|sa|fun- de-|re, vi-|num- que jus- sa|
 (G12 ^F4 | G4) E4 D8- | D8 z4 G4 | G4 =F4 E8- | E4 D4 (E8 | C4 D4 E4) E4 | D4 d4 d4 c4 | %71
w: fun- *|* de- re,|_ mu-|ta- vit un-|* da\_o- ri-|* * * gi-|nem, mu- ta- vit|
 B4 A4 G8- | (G4 ^F2 E2 F4) F4 | G16 | z4 c4 c4 B4 | c4 G4 c8- | c4 B2 A2 B8 |] %77
w: un- da\_o- ri-|* * * * gi-|nem,|mu- ta- vit|un- da\_o- ri-|* gi- * nem.|
[Q:1/2=56] A2 G2 c4 c2 B2 d2 A2 c8 | C2 D2 E2 F2 G2 E2 A2 G8 | A2 c2 c2 B2 A2 G2 (E2 G4) ^F2 G4 | %80
w: 5.~Je- su ti- bi sit glo- ri- a,|qui te re- ve- las gen- ti- bus,|cum Pa- tre et al- mo Spi- * ri- tu,|
 E2 E2 F2 G2 A2 E2 D2 E8 x2 ||[M:4/2][Q:1/2=92] G4 c6 A2 d4- | d2 G2 A2 B2 c2 B2 A4 | B16 |] %84
w: in sem- pi- ter- na sae- cu- la.|A- men, a- *||men.|
V:2
 z24 | z24 | z24 | z24 ||[M:4/2] z16 | z8 C8- | C8 D8 | E6 D2 E2 F2 G4- | G4 ^F4 G4 E4 | %9
w: |||||2.~I-|* bant|Ma- * * * *|* * gi quam|
 (D6 C2 D4) E4 | C8 D8 | E4 C4 E4 G4- | (G4 ^F4) G4 A4 | G4 (=F8 E2 D2 | E8) D8 | D8 z4 G4 | %16
w: vi- * * de-|rant, i-|bant Ma- gi quam|_ _ vi- de-|rant, vi- * *|* de-|rant, stel-|
 D4 E4 F4 E4 | z4 G4 F4 E4 | G4 D4 F6 D2 | E4 F4 E4 C4 | D4 (E8 D2 C2) | B,4 C4 G,8 | z4 C4 C4 D4 | %23
w: lam se- quen- tes,|stel- lam se-|quen- tes pre- vi-|am, stel- lam se-|quen- tes _ _|pre- vi- am:|Lu- men re-|
 (E2 D2 C2 B,2 C8) | A,4 C8 B,4 | C4 G,4 G,4 A,4 | (B,2 C2 D2 B,2 C4) A,4 | G,12 ^F,4 | %28
w: qui- * * * *|runt lu- mi-|ne, lu men re-|qui- * * * * runt|lu- mi-|
 G,4 D4 D4 C4 | B,6 G,2 B,4 A,4 | G,4 G4 G4 F4 | E6 C2 E4 D4 | C4 E4 E4 D4 | E8 D8- | D8 z4 G4 | %35
w: ne, De- um fa-|ten- tur mu- ne-|re, De- um fa-|ten- tur mu- ne-|re, De- um fa-|ten- tur,|_ De-|
 G4 F4 E4 D4 | E4 C4 D8- | D16 || z24 | z24 | z24 | z24 ||[M:4/2] z16 | z8 C8- | C4 D4 (E4 F4) | %45
w: um fa- ten- tur|mu- ne- re.|_||||||4.~No-|* vum ge- *|
 E4 C4 F4 E4 | F6 E2 D4 C4- | C4 B,4 C8 | z8 z4 C4 | E4 G4 C4 C4 | D12 A,4 | B,8 D8 | %52
w: nus po- ten- *||* ti- ae,|no-|vum ge- nus po-|ten- ti-|ae: a-|
 C4 B,4 D4 A,4- | (A,2 B,2 C2 D2 E8) | z4 D6 C2 D4 | E4 C8 B,4 | C4 D4 C4 A,4 | (C6 D2 E4) D4 | %58
w: quae ru- be- scunt|_ _ _ _ _|hy- * *|* * dri-|ae, a- quae ru-|be- * * scunt|
 E4 E4 D8 | z4 C4 D4 D4 | E4 C4 (E6 D2 | E2 F2 G8) ^F4 | G4 C4 C4 A,4 | A4 G4 E4 =F4 | D8 z4 D4 | %65
w: hy- dri- ae,|vi- num- que|jus- sa fun- *|* * * de-|re, vi- num- que|jus- sa fun- de-|re, mu-|
 D4 C4 B,8- | B,4 A,4 C4 B,2 A,2 | G,4 A,4 B,4 C4- | C4 B,4 C4 E4 | E4 D4 C6 C2 | B,4 A,4 G,4 G4 | %71
w: ta- vit un-|* da\_o- ri- * *||* gi- nem, mu-|ta- vit un- da\_o-|ri- gi- nem, mu-|
 G4 F4 E4 C4 | D12 A,4 | B,4 E4 E4 D4 | E8 D8 | E12 E4 | D16 |] D2 B,2 (C2 E2) E2 G4 F4 F2 E4 | %78
w: ta- vit un- da\_o-|ri- gi-|nem, mu- ta- vit|un- da\_o-|ri- gi-|nem.|5.~Je- su ti- * bi sit glo- ri- a,|
 E2 D2 C2 C2 B,2 C2 D2 E8 | E2 E2 A2 G2 E2 D2 E2 D2 (D4 B,4) | C2 B,2 D2 E2 C2 C2 A,2 B,8 x2 || %81
w: qui te re- ve- las gen- ti- bus,|cum Pa- tre et al- mo Spi- ri- tu, _|in sem- pi- ter- na sae- cu- la.|
[M:4/2] z4 E4 F8- | (F4 E2 D2) (C4 D4) | D16 |] %84
w: A- men,|_ _ _ a- *|men.|
V:3
"^Vespers Hymn, Epiphany" F2 G2 (A2 c2) c2 G2 A2 F2 G8 | c2 B2 A2 c2 G2 A2 F2 G8 x2 | %2
w: 1.~Ho- stis He- * ro- des im- pi- e,|Chri- stum ve- ni- re quid ti- mes?|
 c2 c2 d2 e2 c2 d2 (c2 B2) (A4 G4) | G2 G2 F2 E2 F2 A2 F2 G8 x2 ||[M:4/2] F16 | G8 A6 G2 | %6
w: Non e- ri- pit mor- ta- li- * a, _|Qui re- gna dat cae- le- sti- a.|2.~I-|bant Ma- *|
 A2 B2 c8 B4 | c4 G4 c8 | A8 G4 c4- | c4 B4 A4 G4 | A4 c6 B2 B2 A2 | c12 c4 | A8 z4 =F4 | %13
w: |gi quam vi-|de- rant, i-|* bant Ma- gi|quam vi- * * *|* de-|rant, i-|
 G4 A4 G8 | c8 B4 A4 | G8 c8 | B8 A4 c4- | c4 G4 A4 c4 | d8 z4 d4 | c4 A4 c8 | B4 G8 ^F4 | %21
w: bant Ma- gi|quam vi- de-|rant, stel-|lam se- quen-|* tes pre- vi-|am: stel-|lam se- quen-|tes pre- vi-|
 G4 c4 c4 d4 | (e6 d2 c4 B4) | c4 G6 E2 A4- | A4 G4 F4 F4 | (G2 F2 E2 D2 E8) | z4 G4 G4 A4 | %27
w: am: Lu- men re-|qui- * * *|runt lu- * *|* * * mi-|ne, _ _ _ _|lu- men re-|
 B4 G4 (A8 | B6 c2 d4) e4 | d8 z4 c4 | c4 B4 G4 A4 | c12 B4 | c8 z8 | z4 c4 c4 B4 | A8 G8 | %35
w: qui- runt lu-|* * * mi-|ne, De-|um fa- ten- tur|mu- ne-|re,|De- um fa-|ten- tur|
 (A8 G4 F4 | G8) A8 | G16 || z24 | z24 | z24 | z24 ||[M:4/2] z16 | z16 | z16 | z16 | F16 | G16 | %48
w: mu- * *|* ne-|re.|||||||||4.~No-|vum|
 (A8 c8) | c12 G4 | A12 A4 | G8 z8 | z16 | c16 | B8 A8 | c8 G8 | A16 | F8 G8 | z16 | z16 | c16 | %61
w: ge- *|nus po-|ten- ti-|ae:||a-|quae ru-|be- scunt|hy-|dri- ae,|||vi-|
 c8 d8 | e8 c8 | (d8 c8 | B8) A8 | G16 | z16 | z16 | z8 G8- | G8 G8- | G4 =F4 E8- | E4 F4 (G8 | %72
w: num- que|jus- sa|fun- *|* de-|re,|||mu-|* ta-|* vit un-|* da\_o- ri-|
 A12) A4 | G16- | G16- | G16- | G16 |] F2 G2 (A2 c2) c2 G2 A2 F2 G8 | c2 B2 A2 c2 G2 A2 F2 G8 | %79
w: * gi-|nem.|_|||5.~Je- su ti- * bi sit glo- ri- a,|qui te re- ve- las gen- ti- bus,|
 c2 c2 d2 e2 c2 d2 c2 B2 (A4 G4) | G2 G2 F2 E2 F2 A2 F2 G8 x2 ||[M:4/2] G8 A8 | (G12 ^F4) | G16 |] %84
w: cum Pa- tre et al- mo Spi- ri- tu, _|in sem- pi- ter- na sae- cu- la.|A- men,|a- *|men.|
V:4
 z24 | z24 | z24 | z24 ||[M:4/2] z16 | z16 | z16 | C,16 | D,8 (E,6 F,2 | G,8) F,4 E,4 | F,8 D,8 | %11
w: |||||||2.~I-|bant Ma- *|* gi quam|vi- de-|
 C,8 z4 C,4- | C,4 D,4 (E,4 F,4) | E,4 F,4 C,8- | C,8 D,8 | G,,4 G,4 =F,4 E,4 | G,8 D,4 A,4- | %17
w: rant, i-|* bant Ma- *|gi quam vi-|* de-|rant, stel- lam se-|quen- tes, se-|
 (A,2 G,2) E,4 (F,4 A,4) | G,6 F,2 D,8 | z16 | z4 C,4 C,4 D,4 | (E,2 D,2 C,2 B,,2 C,4) B,,4 | %22
w: * * quen- tes _|pre- vi- am:||Lu- men re-|qui- * * * * runt|
 (C,6 B,,2 A,,4 G,,4 | C,6) D,2 E,4 F,4- | (F,4 E,4 D,4) D,4 | C,16 | z4 G,4 E,4 F,4 | %27
w: lu- * * *|* mi- ne, lu-|* * * mi-|ne:|lu- men re-|
 (G,2 F,2 E,2 D,2 C,4) D,4 | (G,,6 A,,2 B,,4) C,4 | G,,4 G,4 G,4 =F,4 | E,12 F,4 | A,4 A,4 G,8 | %32
w: qui- * * * * runt|lu- * * mi-|ne, De- um fa-|ten- tur|mu- ne- re,|
 z4 C,4 C,4 B,,4 | (C,2 D,2 E,2 F,2 G,4) G,,4 | D,6 D,2 E,4 C,4 | C,4 D,4 E,4 F,4 | E,8 D,8 | %37
w: De- um fa-|ten- * * * * tur|mu- ne- re, De-|um fa- ten- tur|mu- ne-|
 G,,16 || z24 | z24 | z24 | z24 ||[M:4/2] z16 | z16 | z16 | z16 | z16 | z8 C,8- | %48
w: re.||||||||||4.~No-|
 C,4 D,4 (E,4 F,4) | E,4 C,4 F,4 E,4 | D,16 | z4 G,8 F,4 | E,4 G,4 (D,6 E,2 | %53
w: * vum ge- *|nus po- ten- ti-|ae:|a- quae|ru- be- scunt _|
 F,4) C,6 D,2 E,2 F,2 | G,6 G,,2 D,4 D,4 | C,8 z4 G,4 | F,4 D,4 (F,6 G,2 | A,2 B,2 C8) B,4 | %58
w: _ hy- * * *|* * * dri-|ae, a-|quae ru- be- *|* * * scunt|
 (C12 B,2 A,2 | B,4) A,4 G,8 | z16 | z16 | z8 z4 F,4 | F,4 G,4 A,4 F,4 | G,4 G,,4 D,6 C,2 | %65
w: hy- * *|* dri- ae,|||vi-|num- que jus- sa|fun- * * *|
 B,,4 C,4 G,,4 G,4 | G,4 F,4 E,8- | E,4 F,4 G,4 A,4 | (G,6 F,2 E,2 D,2 C,4-) | C,4 B,,4 C,4 C,4 | %70
w: * de- re, mu-|ta- vit un-|* da\_o- ri- gi-|nem, _ _ _ _|_ o- ri- gi-|
 D,8 z4 G,4 | G,4 D,4 E,4 E,4 | D,12 D,4 | G,,4 C,4 C,4 B,,4 | C,8 G,,8 | C,12 C,4 | G,,16 |] %77
w: nem, mu-|ta- vit un- da\_o-|ri- gi-|nem, mu- ta- vit|un- da\_o-|ri- gi-|nem.|
 D,2 E,2 (C,2 A,,2) E,2 E,2 D,2 D,2 C,8 | A,,2 B,,2 C,2 A,,2 E,2 C,2 F,2 E,8 | %79
w: 5.~Je- su ti- * bi sit glo- ri- a,|qui te re- ve- las gen- ti- bus,|
 A,2 G,2 F,2 G,2 A,,2 B,,2 C,2 G,,2 (D,4 G,,4) | C,2 E,2 D,2 C,2 A,,2 C,2 F,2 E,8 x2 || %81
w: cum Pa- tre et al- mo Spi- ri- tu, _|in sem- pi- ter- na sae- cu- la.|
[M:4/2] z4 (E,8 D,2 C,2) | B,,4 (C,2 B,,2 A,,4 D,4) | G,,16 |] %84
w: A- * *|men, a- * * *|men.|

